X: 90
T:Rigadoon,A. JaW.090
M:6/4
Q:1/4=140
C:"A Good One"
S:James Winder Ms, Lancashire, 1835-41
R:Rigadoon
O:England
A:Wyresdale,Lancashire
H:1/4
Z:vmp.Chris Partington, Aug 2004
K:C
c/d/|e>fe d>cB|c2A E2A/B/|c>Bc d>cd|e3-e2:||:e/f/|g>ag f2e|!
f2d A2d/e/|f>gf e>dB|e2^G E2c/d/|e>dc B2A|A3-A2:|]
